X:3181
L:1/8
M:2/2
K:G
 g>gg>g g2 (3fgf | edef e2 d2 | cccc c2 (3BcB | AGAB A2 A2 | aaaa a2 g2 | ffff{g} f2 e2 | 
 dddd e2 f2 | gfga g2 [G,D]2 | G2 [DA][DA] [GB]2 c2 | dddd d2 Bd | e2 dd B2 G2 | FFFF [FA]2 z2 || 
[M:1/4] D2 |[M:3/4] G6 | B4 F2 | E6 | E2 B,2 D2 | E4 G2 | F3 E (3DED | C6 | C4 D2 | A6 | c4 G2 | 
 E6 | E4 DF | E4 DF | E4 D2 | B6 |[M:2/4] B4 ||

